X: 13
T:Jackson's Silver Mines (#123)
M:6/8
L:1/8
S:O'Farrell's National Irish Music 1797
K:D
F/2G/2|A3 AGF|ABA AGF|G2 E EFE|G2 E EFG|
A2 A AGF|ABc dAG|F2 D DED|F2 D D2:|
|:d|cBc dAF|ABc dAF|G2 E EFE|GFG E2 d|
cBc dAF|ABc dAG|F2 D DED|F2 D D2:|
|:F|AF/2G/2A/2F/2 DFF|DFF AGF|G2 E EFE|G2 E E2 F|
AF/2G/2A/2F/2 DFF|DFF AGE|F2 D DED|F2 D D2:|
|:g|fed faf|gbg faf|g2 e ece|gfg e2 g|
fed faf|gbg aga|fed dAd|f2 d d2:|
|:g|faf gec|fdB AGF|G2 E EGE|G2 E E2 g|
fdB ecA|dBG AGE|F2 D DED|F2 D D2:||

